X:1
T:Impossible
T:Impossible
T:Arnthor Birgisson, Ina Wroldsen
T:Shontelle
C:Arnthor Birgisson,Ina Wroldsen
Z:All Rights Reserved
L:1/8
M:4/4
K:Ab
V:1 treble 
%%MIDI program 40
%%MIDI control 7 100
%%MIDI control 10 64
V:1
"F" cFcF cFcF |"Ab" cFcF cFcF |"Eb" BFBF BFBF |"Db" ADAD ADAD |:"Fm" ccee AA c2 |"Ab" AAcc EE c2 | %6
w: ||||I re- mem- ber years a- go|Some- one told me I should take|
w: ||||Fal- ling out of love is hard.|Fal- ling for be- trayal is worst.|
"Eb" BBdd GG B2 |"Db" B A3 z BAB |"Fm" ccee AA c2 |"Ab" AAcc EE c2 |"Eb" BBdd GG B2 | %11
w: cau- tion when it comes to love|I did, I did, and|you were strong and I was not|My il- lu- sion, my mis- take|I was care- less, I for- got|
w: Bro- ken trust and brok- en hearts|I know, I know. *|Think- ing all you need is there|Build- ing faith on love and words.|Emp- ty prom- is- es will wear|
"Db" B A3 z2 E2 | F3 F A/A/A/A/ A/G/F |"Eb" G3 G/A/ BB/B/ B/A/G |"Fm" A3 F/G/ AA/A/ A/G/F | %15
w: I did. And|now when all is done there's no- thing to|say. You have gone and so ef- fort- less-|ly. You have won you can go a- head|
w: I know, and|now when all is gone there's no- thing to|say. And if you're done with em- barra- sing|me On your own you can go a- head|
"Ab" A2 A2 BcFG |"Fm" A2 A2 BcFG |"Ab" A2 A2 BcEA |"Eb" G2 G2 BcEG |"Db" A2 A2 BcFG | %20
w: tell them. Tell them all I|know now Shout it from the|roof tops Write it on the|sky- line All we had is|gone now. Tell them I was|
w: tell them * * * *|||||
"Fm" A2 A2 BcFG |"Ab" A2 A2 BcEA |"Eb" G2 G2 BcEG |"Db" A2 A2 AAAc |"Fm" c>BA>G FFFc | %25
w: hap- py and my heart is|bro- ken, All my scars are|o- pen, Tell them what I|hoped would be, im- pos- si|ble, * * * * im- pos- si-|
w: |||||
"Ab" c>BA>G FFFc |"Eb" B>AG>F EEEB |1"Db" A8 :|2"Db" A4 z AAc ||"Fm" c>BA>G FFFc | %30
w: ble, * * * * im- pos- si-|ble, * * * * im- pos- si-|ble.|* im- pos- si-|ble, * * * * im- pos- si-|
w: |||||
"Ab" c>BA>G FFFc |"Eb" B>AG>F EEEB |"Db" A8 |"Fm" z2 z f f/f/fec- |"Ab" c2 z f f/f/fec- | %35
w: ble * * * * im- pos- si-|ble * * * * im- pos- si|ble.|||
w: |||||
"Eb" c3 e e/e/ecB |"Db" B2 z c c/c/cBA |"Fm" ccee AA c2 |"Ab" AAcc EE B2 |"Db""Eb" BBdd GG B2 | %40
w: ||I re- mem- ber years a- go|Some- one told me I should take|Cau- tion when it comes to love,|
w: |||||
"Db" B A3 BcFG |"Fm" A2 A2 BcFG |"Ab" A2 A2 BcEA |"Eb" G2 G2 BcEG |"Db" A2 A2 BcFG | %45
w: I did Tell them all I|knoe now Shout it from the|roof tops Write it on the|sky- line All we had is|gone now Tell them I was|
w: |||||
"Fm" A2 A2 BcFG |"Ab" A2 A2 BcEA |"Eb" G2 G2 BcEG |"Db" A2 A2 AAAc |"Fm" c>BA>G FFFc | %50
w: hap- py And my heart is|bro- ken All my scars are|o- pen Tell them what I|hoped would be Im- pos- si-|ble,- * * * * Im- pos- si-|
w: |||||
"Ab" c>BA>G FFFc |"Eb" B>AG>F EEEB |"Db" A4 z AAc |"Fm" c>BA>G FFFc |"Ab" c>BA>G FFFc | %55
w: ble, * * * * Im- pos- si-|ble, * * * * Im- pos- si-|ble Im- pos- si-|ble, * * * * Im- pos- si-|ble, * * * * Im- pos- si|
w: |||||
"Eb" B>AG>F EEEB |"Db" A8 |"Fm" ccee AA c2 |"Ab" AAcc EE A2 |"Eb" BBdd GG B2 |"Db" B A3- A4 |] %61
w: ble,- * * * * Im- pos- si-|ble.|I re- mem- ber years a- go|Some- one told me I should take|Cau- tion when it comes to love,|I did.- *|
w: ||||||

